X: 1848
T: Sad the Cuckoo is Calling
B: australian traditional tunes wiki
M:3/4
L:1/8
R: Waltz
Q: 1/4=100
K:G
V:1 
Bc|:"G"d2B2B2|B2c2d2|"Am"e2A2A2|A4G2|"D7"F2A2c2|1
e2d2d2|"G"c2B2B2|B4Bc:|2e2d2F2|"G"G4GG|G4||
|:Bc|"G"dB dB dB|dB dB dB|d2b2b2|b2a2g2|"D7"f2a2a2|1
a2g2f2|"G"d2g2g2|g4:|2e2e2f2|"G"g6-|g4z2||
% abcbook-tune_id 6342d53a10b9e11745a74ee7


% abcbook-boost 0
% abcbook-tablature 
% abcbook-transpose 
% abcbook-lastupdated 1665324387690
% abcbook-soundfonts 
% abcbook-repeats 1
% NFF Book 2008

